svg/fluentui-system-icons/ic_fluent_document_question_mark_16_filled.svg

<svg width="16" height="16" viewBox="0 0 16 16" fill="none" xmlns="http://www.w3.org/2000/svg">
<path d="M6 1.00195H8.99951V4.50289C8.99951 5.33132 9.67108 6.00289 10.4995 6.00289H14V12.998C14 14.1026 13.1046 14.998 12 14.998H8.66586C10.0778 14.0025 11 12.3589 11 10.5C11 7.46243 8.53757 5 5.5 5C4.97999 5 4.47683 5.07217 4 5.20703V3.00195C4 1.89738 4.89543 1.00195 6 1.00195ZM10.4995 5.00289H13.9967L10.0084 1.00195H9.99951V4.50289C9.99951 4.77903 10.2234 5.00289 10.4995 5.00289ZM10 10.5C10 12.9853 7.98528 15 5.5 15C3.01472 15 1 12.9853 1 10.5C1 8.01472 3.01472 6 5.5 6C7.98528 6 10 8.01472 10 10.5ZM5.49993 12.3804C5.15502 12.3804 4.87542 12.66 4.87542 13.0049C4.87542 13.3498 5.15502 13.6294 5.49993 13.6294C5.84484 13.6294 6.12444 13.3498 6.12444 13.0049C6.12444 12.66 5.84484 12.3804 5.49993 12.3804ZM5.49997 7.50345C4.45202 7.50345 3.63568 8.32084 3.64659 9.45774C3.64924 9.73387 3.87524 9.95557 4.15137 9.95292C4.4275 9.95026 4.6492 9.72427 4.64655 9.44814C4.64099 8.86913 5.0062 8.50345 5.49997 8.50345C5.97235 8.50345 6.35337 8.89534 6.35337 9.45294C6.35337 9.65474 6.28218 9.7679 5.99369 9.9968L5.7157 10.2118C5.20993 10.6161 4.99995 10.9294 4.99993 11.5003C4.99992 11.7764 5.22376 12.0003 5.49991 12.0003C5.74537 12.0003 5.94952 11.8234 5.99187 11.5902L6.0034 11.4341C6.02024 11.2863 6.10295 11.1804 6.34869 10.9858L6.62574 10.7715C7.13905 10.3607 7.35337 10.0387 7.35337 9.45294C7.35337 8.34924 6.53102 7.50345 5.49997 7.50345Z" fill="#212121"/>
</svg>

<svg xmlns="http://www.w3.org/2000/svg" width="16" height="16"><path d="M6 1.002h3v3.5a1.5 1.5 0 0 0 1.5 1.5H14v6.996a2 2 0 0 1-2 2H8.666A5.5 5.5 0 0 0 4 5.207V3.002a2 2 0 0 1 2-2Zm4.5 4h3.497l-3.989-4H10v3.5a.5.5 0 0 0 .5.5ZM10 10.5a4.5 4.5 0 1 1-9 0 4.5 4.5 0 0 1 9 0Zm-4.5 1.88a.625.625 0 1 0 0 1.25.625.625 0 0 0 0-1.25Zm0-4.877c-1.048 0-1.864.818-1.853 1.955a.5.5 0 0 0 1-.01c-.006-.579.36-.945.853-.945.472 0 .853.392.853.95 0 .202-.07.315-.36.544l-.277.215C5.21 10.616 5 10.929 5 11.5a.5.5 0 0 0 .992.09l.011-.156c.017-.148.1-.254.346-.448l.277-.215c.513-.41.727-.732.727-1.318 0-1.104-.822-1.95-1.853-1.95Z"/></svg>
